img/header/vk.svg

<svg width="31" height="31" viewBox="0 0 31 31" fill="none" xmlns="http://www.w3.org/2000/svg">
<g clip-path="url(#clip0)">
<path d="M30.7238 22.4327C30.6404 22.2932 30.125 21.1732 27.6448 18.8713C25.0484 16.4609 25.3972 16.8523 28.5245 12.6844C30.4292 10.1461 31.1907 8.596 30.9524 7.93332C30.7257 7.30165 29.3248 7.46829 29.3248 7.46829L24.6667 7.49541C24.6667 7.49541 24.3218 7.44891 24.0641 7.60198C23.8141 7.75312 23.6533 8.1019 23.6533 8.1019C23.6533 8.1019 22.9151 10.0667 21.9307 11.7369C19.8555 15.2615 19.0243 15.4475 18.6852 15.2285C17.8966 14.7189 18.0942 13.1785 18.0942 12.0857C18.0942 8.66963 18.6116 7.24546 17.0847 6.87731C16.577 6.75523 16.205 6.67385 14.9087 6.66029C13.2462 6.64285 11.8376 6.6661 11.0412 7.05557C10.5103 7.31521 10.1014 7.89457 10.3514 7.92751C10.6595 7.9682 11.357 8.11546 11.7271 8.61925C12.2057 9.26836 12.1883 10.7293 12.1883 10.7293C12.1883 10.7293 12.4634 14.75 11.5469 15.2499C10.9172 15.5928 10.0549 14.8933 8.20447 11.6943C7.25697 10.057 6.54004 8.24528 6.54004 8.24528C6.54004 8.24528 6.40247 7.90813 6.15639 7.72793C5.85799 7.50898 5.43946 7.43922 5.43946 7.43922L1.01001 7.46635C1.01001 7.46635 0.345394 7.48573 0.101251 7.77444C-0.115765 8.03214 0.0838123 8.56306 0.0838123 8.56306C0.0838123 8.56306 3.55219 16.676 7.47786 20.7663C11.0799 24.5157 15.1684 24.2696 15.1684 24.2696H17.0208C17.0208 24.2696 17.5807 24.2076 17.8656 23.8995C18.1291 23.6166 18.1194 23.0857 18.1194 23.0857C18.1194 23.0857 18.0826 20.5997 19.2374 20.2335C20.3748 19.8731 21.8358 22.6362 23.384 23.6999C24.5543 24.5041 25.4437 24.3277 25.4437 24.3277L29.5844 24.2696C29.5844 24.2696 31.7507 24.1359 30.7238 22.4327Z" fill="white"/>
</g>
<defs>
<clipPath id="clip0">
<rect width="31" height="31" fill="white"/>
</clipPath>
</defs>
</svg>

<svg width="31" height="31" fill="none" xmlns="http://www.w3.org/2000/svg"><g clip-path="url(#prefix__a)"><path d="M30.724 22.433c-.084-.14-.599-1.26-3.08-3.562-2.596-2.41-2.247-2.019.88-6.187 1.905-2.538 2.667-4.088 2.428-4.75-.226-.632-1.627-.466-1.627-.466l-4.658.027s-.345-.046-.603.107c-.25.151-.41.5-.41.5s-.739 1.965-1.723 3.635c-2.076 3.524-2.907 3.71-3.246 3.492-.788-.51-.59-2.05-.59-3.143 0-3.416.517-4.84-1.01-5.209-.508-.122-.88-.203-2.176-.217-1.663-.017-3.071.006-3.868.396-.53.26-.94.839-.69.872.308.04 1.006.187 1.376.691.479.65.461 2.11.461 2.11s.275 4.021-.641 4.52c-.63.344-1.492-.356-3.343-3.555-.947-1.637-1.664-3.449-1.664-3.449s-.138-.337-.384-.517c-.298-.219-.717-.289-.717-.289l-4.429.027s-.665.02-.909.308c-.217.258-.017.79-.017.79s3.468 8.112 7.394 12.202c3.602 3.75 7.69 3.504 7.69 3.504h1.853s.56-.062.845-.37c.263-.283.253-.814.253-.814s-.036-2.486 1.118-2.852c1.138-.36 2.599 2.402 4.147 3.466 1.17.804 2.06.628 2.06.628l4.14-.058s2.167-.134 1.14-1.837z" fill="#fff"/></g><defs><clipPath id="prefix__a"><path fill="#fff" d="M0 0h31v31H0z"/></clipPath></defs></svg>
